X: 5059
T: Bridal March From Unst
R: waltz
M: 3/4
K: Gmajor
|:g2|G2 B2 A2|B4 d2|ef g2 B2|AG HA2 g/e/f|
d2 G2- GA|B2 d2 Ac|B2 G2 G2|G4:|
g2|e2 d2- dg|e2 d2 g2|e2 d2 g2|e4 d2|
e>>f g2 d2|e>>f g2 d2|ef g2 g2|g4 B2|
c3 c BA|B2 d2- dd|ef g2 B2|AG HA2 g/f/e|
d2 G2 G>A|B2 d2 Ac|B2 G2 G2|G4||

